X: 1
T: Glad Eye, The
M: 6/8
L: 1/8
R: jig
K: Gdor
D |: _EGB dcB | AcB AGF | GBd g2a | baf fge|
cgf edc | =B/c/dB BcA | BAG AGF | DdA GFD :|
|: G2G, dBc | DGA dBc | DFA BAB | AdB AGF|
G2G, dBc | DGA dBc | A/B/cB AGF | DEF GFD :|
